;FLAVOR:Marlin
;TIME:4081
;Filament used: 3.37228m
;Layer height: 0.25
;MINX:138.115
;MINY:155.893
;MINZ:0.25
;MAXX:204.797
;MAXY:194.112
;MAXZ:48
;POSTPROCESSED
;ARCWELDERPROCESSED
; Postprocessed by [ArcWelder](https://github.com/FormerLurker/ArcWelderLib)
; Copyright(C) 2020 - Brad Hochgesang
; resolution=0.05mm
; path_tolerance=5%
; max_radius=1000000.00mm
; default_xyz_precision=3
; default_e_precision=5

;Generated with Cura_SteamEngine 4.11.0



M140 S55
M105
M190 S55
M104 S235
M105
M109 S235
M82 ;absolute extrusion mode
M201 X500.00 Y500.00 Z100.00 E5000.00 ;Setup machine max acceleration
M203 X500.00 Y500.00 Z10.00 E50.00 ;Setup machine max feedrate
M204 P500.00 R1000.00 T500.00 ;Setup Print/Retract/Travel acceleration
M205 X8.00 Y8.00 Z0.40 E5.00 ;Setup Jerk
M220 S100 ;Reset Feedrate
M221 S100 ;Reset Flowrate

G28 ;Home
M420 S1 Z2 ;Enable ABL using saved Mesh and Fade Height

G92 E0 ;Reset Extruder
G1 Z2.0 F3000 ;Move Z Axis up
G1 X10.1 Y20 Z0.28 F5000.0 ;Move to start position
G1 X10.1 Y200.0 Z0.28 F1500.0 E15 ;Draw the first line
G1 X10.4 Y200.0 Z0.28 F5000.0 ;Move to side a little
G1 X10.4 Y20 Z0.28 F1500.0 E30 ;Draw the second line
G92 E0 ;Reset Extruder
G1 Z2.0 F3000 ;Move Z Axis up

G92 E0
G92 E0
G1 F2100 E-1.5
;LAYER_COUNT:192
;LAYER:0
M107
M204 S500
G0 F6000 X142.44 Y160.519 Z0.25
;TYPE:SKIRT
G1 F2100 E0
G3 X149.761 Y157.394 I8.370 J9.471 E0.33656 F1200
G1 X150.896 Y157.306 E0.38389
G1 X173.082 Y155.955 E1.30798
G3 X197.937 Y169.712 I2.011 J25.698 E2.55853
G3 X196.921 Y182.103 I-11.340 J5.307 E3.09965
G3 X173.246 Y194.055 I-21.888 J-13.933 E4.25692
G3 X149.750 Y192.605 I420.884 J-7011.153 E5.23564
G3 X138.123 Y179.918 I1.111 J-12.689 E6.02117
G3 X138.163 Y169.167 I343.213 J-4.099 E6.46819
G3 X142.440 Y160.519 I12.683 J0.891 E6.87952
G0 F6000 X142.701 Y160.823
G3 X150.737 Y157.718 I8.309 J9.553 E7.24499 F1200
G1 X173.107 Y156.355 E8.17675
G3 X197.573 Y169.880 I1.987 J25.296 E9.40733
G3 X196.581 Y181.892 I-10.977 J5.140 E9.93202
G3 X173.394 Y193.662 I-21.543 J-13.715 E11.06625
G3 X149.781 Y192.206 I422.752 J-7048.274 E12.04983
G3 X138.523 Y179.914 I1.080 J-12.291 E12.81069
G3 X138.562 Y169.197 I342.704 J-4.111 E13.25629
G3 X142.701 Y160.823 I12.288 J0.863 E13.65455
G0 F6000 X142.961 Y161.127
G3 X150.769 Y158.117 I8.057 J9.268 E14.00957 F1200
G1 X173.131 Y156.754 E14.941
G3 X197.210 Y170.048 I1.944 J24.933 E16.15167
G3 X196.241 Y181.682 I-10.615 J4.973 E16.65995
G3 X173.294 Y193.256 I-21.206 J-13.510 E17.78143
G3 X149.812 Y191.808 I449.056 J-7473.405 E18.75955
G3 X138.923 Y179.909 I1.050 J-11.893 E19.49580
G3 X138.961 Y169.227 I341.827 J-4.125 E19.93994
G3 X142.961 Y161.127 I11.880 J0.829 E20.32510
G1 F2100 E18.8251
;MESH:3DBenchy.stl
G0 F6000 X149.007 Y168.526
G0 X149.71 Y169.223
G0 X149.915 Y172.454
G0 X151.618 Y171.688
G0 X152.323 Y171.544
G0 X152.968 Y171.551
G0 X153.702 Y171.739
G0 X154.275 Y172.113
G0 X154.484 Y172.336
G0 X154.639 Y172.622
G0 X154.683 Y172.94
G0 X154.609 Y173.229
G0 X154.406 Y173.524
G0 X154.099 Y173.709
G0 X152.393 Y173.659
G0 X152.131 Y173.798
G0 X151.887 Y174.318
G0 X151.84 Y175.223
G0 X151.975 Y175.91
G0 X152.246 Y176.208
G0 X152.552 Y176.287
G0 X153.92 Y175.914
G0 X154.975 Y176.89
;TYPE:WALL-INNER
G1 F2100 E20.3251
G2 X152.999 Y176.288 I-1.142 J0.204 E20.43093 F1200
G3 X152.540 Y176.461 I-0.376 J-0.303 E20.45207
G3 X151.721 Y175.658 I0.035 J-0.855 E20.50400
G3 X151.787 Y174.037 I3.288 J-0.678 E20.57204
G1 X152.003 Y173.678 E20.58946
G3 X152.731 Y173.525 I0.482 J0.485 E20.62210
G2 X153.779 Y174.002 I1.460 J-1.818 E20.67033
G1 X154.183 Y173.965 E20.6872
G1 X154.59 Y173.719 E20.70697
G1 X154.851 Y173.339 E20.72614
G3 X154.919 Y173.073 I6.524 J1.526 E20.73755
G2 X155.146 Y173.396 I31.913 J-22.186 E20.74415
G1 X155.564 Y173.617 E20.76381
G2 X156.487 Y173.576 I0.331 J-2.967 E20.80239
G1 X156.7 Y173.582 E20.81125
G2 X156.697 Y177.013 I184.331 J1.877 E20.95393
G2 X156.693 Y177.819 I2.174 J0.414 E20.98758
G1 X156.866 Y178.151 E21.00315
G1 X157.225 Y178.416 E21.0217
G1 X157.737 Y178.518 E21.04341
G1 X158.214 Y178.421 E21.06364
G1 X158.585 Y178.127 E21.08332
G2 X158.843 Y177.028 I-1.428 J-0.915 E21.13117
G3 X158.830 Y173.593 I347.193 J-3.031 E21.27399
G1 X158.843 Y173.593
G2 X160.193 Y173.470 I0.382 J-3.283 E21.32741
G1 X160.511 Y173.237 E21.3438
G3 X160.656 Y172.950 I122.918 J61.922 E21.35717
G1 X160.724 Y173.17 E21.36024
G1 X160.736 Y173.206
G1 X161.021 Y173.57 E21.37946
G1 X161.45 Y173.808 E21.39985
G2 X161.715 Y173.805 I0.043 J-7.907 E21.41087
G1 X161.564 Y173.937 E21.41302
G1 X161.538 Y173.96
G2 X161.401 Y175.265 I1.027 J0.767 E21.47014
G1 X161.741 Y175.591 E21.48973
G2 X162.691 Y175.851 I4.401 J-14.215 E21.53077
G3 X163.020 Y176.322 I-0.223 J0.506 E21.55560
G1 X162.933 Y176.502 E21.56391
G3 X162.655 Y176.451 I-0.121 J-0.124 E21.57709
G2 X160.745 Y176.576 I-0.899 J0.913 E21.66698
G2 X161.423 Y178.400 I1.188 J0.596 E21.75747
G2 X164.465 Y178.072 I1.248 J-2.701 E21.89112
G2 X165.098 Y175.172 I-1.673 J-1.884 E22.02293
G2 X164.693 Y174.475 I-1.410 J0.353 E22.05678
G1 X164.807 Y174.361 E22.06348
G2 X164.801 Y172.178 I-1.989 J-1.086 E22.15808
G2 X163.008 Y171.276 I-1.768 J1.282 E22.24467
G2 X160.891 Y171.947 I-0.310 J2.696 E22.33980
G3 X160.715 Y172.222 I-164.525 J-105.103 E22.35338
G1 X160.66 Y172.007 E22.35648
G1 X160.649 Y171.965
G1 X160.359 Y171.622 E22.37515
G2 X159.575 Y171.441 I-0.639 J0.978 E22.40912
G3 X155.787 Y171.414 I-1.363 J-74.471 E22.56669
G1 X155.336 Y171.533 E22.58608
G1 X154.986 Y171.861 E22.60602
G2 X154.810 Y172.390 I1.049 J0.643 E22.62942
G2 X152.998 Y171.292 I-1.946 J1.167 E22.71240
G2 X149.716 Y173.286 I-0.461 J2.940 E22.88550
G1 X149.716 Y173.241
G1 X149.716 Y172.96 E22.88745
G1 X149.716 Y172.701 E22.89273
G1 X149.716 Y172.492 E22.90009
G1 X149.716 Y170.131 E22.99825
G3 X150.817 Y168.933 I1.131 J-0.065 E23.07330
G1 X173.912 Y167.526 E24.03526
G3 X187.518 Y174.807 I1.152 J14.201 E24.71349
G3 X187.328 Y175.574 I-0.948 J0.172 E24.74734
G3 X186.095 Y177.313 I-12.152 J-7.310 E24.83606
G2 X185.382 Y176.569 I-0.919 J0.167 E24.87608
G2 X184.682 Y176.472 I-0.853 J3.578 E24.90550
G1 X184.697 Y176.45
G2 X185.950 Y174.583 I-23.658 J-17.232 E24.99639
G2 X185.607 Y173.047 I-1.179 J-0.543 E25.06661
G2 X184.771 Y172.881 I-0.681 J1.240 E25.10246
G2 X182.676 Y172.894 I-0.640 J65.725 E25.18958
G2 X181.825 Y173.353 I0.013 J1.042 E25.23142
G1 X181.767 Y173.472 E25.23693
G2 X180.298 Y173.089 I-0.883 J0.378 E25.30307
G2 X179.566 Y174.493 I2.210 J2.045 E25.36980
G1 X179.537 Y174.572 E25.3733
G1 X179.515 Y174.514
G2 X179.083 Y173.345 I-6.909 J1.889 E25.41567
G2 X177.496 Y173.049 I-0.965 J0.769 E25.48862
G2 X177.166 Y173.588 I0.635 J0.759 E25.51545
G2 X175.502 Y173.182 I-0.952 J0.291 E25.59282
G2 X175.177 Y173.574 I0.940 J1.110 E25.61407
G1 X175.144 Y173.531
G2 X174.099 Y172.869 I-1.134 J0.634 E25.66636
G1 X173.683 Y172.967 E25.68413
G1 X173.282 Y173.26 E25.70477
G1 X173.082 Y173.66 E25.72337
G2 X173.379 Y174.807 I1.863 J0.129 E25.77364
G2 X173.939 Y175.747 I7.009 J-3.539 E25.81916
G2 X173.277 Y176.837 I52.064 J32.366 E25.87221
G1 X173.257 Y176.794
G2 X171.134 Y175.906 I-1.472 J0.538 E25.97382
G1 X171.158 Y175.769 E25.97592
G1 X171.167 Y175.718
G2 X170.644 Y172.702 I-4.599 J-0.756 E26.10576
G2 X168.365 Y171.472 I-2.282 J1.503 E26.21785
G2 X166.394 Y171.462 I-1.142 J30.895 E26.29988
G2 X165.508 Y172.748 I0.145 J1.048 E26.37283
G2 X165.534 Y177.566 I3489.398 J-16.421 E26.54887
G2 X166.777 Y178.505 I1.045 J-0.092 E26.62198
G2 X168.572 Y178.438 I-0.430 J-35.598 E26.69675
G2 X170.210 Y177.698 I-0.223 J-2.678 E26.77289
G1 X170.222 Y177.786
G1 X170.228 Y177.802
G2 X173.147 Y178.167 I1.536 J-0.429 E26.92792
G2 X173.256 Y178.345 I49.722 J-30.325 E26.93146
G1 X173.639 Y178.609 E26.9508
G1 X174.127 Y178.694 E26.9714
G2 X175.118 Y177.863 I-0.381 J-1.461 E27.02709
G1 X175.14 Y177.901
G2 X175.526 Y178.450 I2.029 J-1.016 E27.04971
G1 X175.95 Y178.68 E27.06976
G2 X177.163 Y178.205 I0.259 J-1.124 E27.12709
G2 X176.886 Y176.592 I-1.380 J-0.593 E27.19889
G3 X176.397 Y175.697 I17.202 J-9.980 E27.24140
G2 X177.156 Y174.313 I-73.010 J-40.940 E27.30714
G2 X177.765 Y175.962 I14.231 J-4.319 E27.37016
G2 X178.436 Y177.700 I45.906 J-16.725 E27.44768
G2 X177.967 Y178.846 I47.067 J19.931 E27.49926
G3 X177.420 Y179.109 I-0.749 J-0.857 E27.52508
G2 X176.783 Y179.558 I0.219 J0.988 E27.55812
G1 X176.675 Y180.043 E27.57878
G2 X177.056 Y180.932 I1.309 J-0.035 E27.61972
G1 X177.418 Y181.161 E27.63753
G2 X179.780 Y179.957 I0.450 J-2.035 E27.75692
G2 X181.661 Y174.881 I-83.430 J-33.803 E27.98206
G3 X181.798 Y174.587 I5.140 J2.216 E27.99555
G1 X181.804 Y174.606
G1 X181.856 Y174.65
G2 X182.590 Y175.040 I0.804 J-0.628 E28.03060
G1 X182.999 Y175.077 E28.04767
G1 X182.88 Y175.245 E28.04993
G2 X181.776 Y176.821 I29.334 J21.723 E28.12991
G2 X182.124 Y178.568 I1.147 J0.680 E28.21105
G2 X183.301 Y178.674 I0.793 J-2.222 E28.26086
G2 X184.805 Y178.683 I1.425 J-112.423 E28.32340
G3 X174.027 Y182.481 I-9.749 J-10.473 E28.80091
G3 X150.543 Y181.024 I442.512 J-7322.419 E29.77918
G3 X149.715 Y179.851 I0.320 J-1.105 E29.84349
G1 X149.715 Y177.425 E29.94436
G1 X149.715 Y177.417 E29.94469
G1 X149.715 Y177.054 E29.95978
G1 X149.715 Y176.734 E29.97308
G1 X149.715 Y176.636 E29.97716
G2 X153.408 Y178.565 I2.879 J-1.011 E30.14928
G2 X154.916 Y177.287 I-0.414 J-2.018 E30.23477
G1 X154.975 Y176.89 E30.25145
G0 F6000 X154.565 Y176.929
;TYPE:WALL-OUTER
G2 X153.266 Y176.586 I-0.741 J0.177 E30.32009 F1200
G3 X152.533 Y176.864 I-0.640 J-0.583 E30.35404
G3 X151.330 Y175.746 I0.040 J-1.249 E30.42845
G3 X151.524 Y173.645 I3.648 J-0.723 E30.51761
G3 X153.265 Y173.383 I0.976 J0.568 E30.60169
G2 X154.055 Y173.575 I0.588 J-0.696 E30.63638
G2 X154.182 Y172.216 I-0.298 J-0.713 E30.70598
G2 X149.950 Y173.953 I-1.622 J2.073 E30.93618
G2 X150.245 Y176.869 I4.840 J0.983 E31.05995
G2 X154.135 Y177.749 I2.323 J-1.230 E31.24853
G2 X154.565 Y176.929 I-0.841 J-0.964 E31.28796
G0 F6000 X155.003 Y176.888
G1 F2100 E29.78796
G0 F6000 X153.762 Y175.757
G0 X152.736 Y176.268
G0 X152.246 Y176.208
G0 X151.975 Y175.91
G0 X151.84 Y175.223
G0 X151.887 Y174.318
G0 X152.131 Y173.798
G0 X152.393 Y173.659
G0 X154.71 Y173.846
G0 X154.979 Y173.483
G0 X156.518 Y173.756
G0 X156.949 Y177.744
G0 X157.07 Y177.976
G0 X157.334 Y178.171
G0 X158.163 Y178.205
G1 F2100 E31.28796
G0 F6000 X158.041 Y178.048
G2 X158.443 Y177.036 I-0.538 J-0.799 E31.33603 F1200
G3 X158.427 Y173.411 I183.964 J-2.625 E31.48676
G1 X158.464 Y173.215 E31.49505
G3 X159.425 Y173.208 I0.599 J16.228 E31.53511
G2 X160.197 Y172.971 I0.074 J-1.133 E31.56953
G2 X159.932 Y171.868 I-0.544 J-0.453 E31.62460
G2 X156.266 Y171.842 I-5.357 J496.805 E31.77708
G2 X155.536 Y171.894 I-0.288 J1.112 E31.80792
G2 X155.676 Y173.224 I0.407 J0.630 E31.87673
G2 X156.458 Y173.176 I0.237 J-2.540 E31.90945
G3 X157.096 Y173.406 I0.150 J0.583 E31.93961
G2 X157.097 Y177.034 I265.233 J1.741 E32.09049
G2 X157.178 Y177.884 I1.229 J0.312 E32.12689
G2 X158.041 Y178.048 I0.555 J-0.569 E32.16546
G0 F6000 X158.226 Y178.447
G0 X158.997 Y176.408
G0 X159.015 Y173.786
G0 X160.635 Y173.372
G0 X161.604 Y173.628
G0 X162.716 Y173.411
;TYPE:WALL-INNER
G3 X162.392 Y173.543 I-0.312 J-0.302 E32.18032 F1200
G2 X162.703 Y173.389 I-8.212 J-16.975 E32.18125
G1 X162.716 Y173.411
G1 F2100 E30.68125
G0 F6000 X161.517 Y173.545
G0 X161.195 Y173.368
G0 X160.971 Y173.082
G0 X160.862 Y172.729
G0 X160.91 Y172.402
G0 X161.089 Y172.121
G0 X161.679 Y171.729
G0 X162.371 Y171.553
G0 X163.414 Y171.59
G0 X163.844 Y171.718
G0 X164.38 Y172.075
G0 X164.579 Y172.319
G0 X164.734 Y172.641
G0 X164.806 Y173.301
G0 X164.728 Y173.894
G0 X164.615 Y174.149
G0 X164.303 Y174.498
G1 F2100 E32.18125
G0 F6000 X163.966 Y174.511
;TYPE:WALL-OUTER
G2 X164.667 Y173.297 I-0.478 J-1.085 E32.24378 F1200
G2 X163.384 Y171.727 I-1.439 J-0.133 E32.33695
G2 X161.416 Y172.028 I-0.596 J2.686 E32.42168
G2 X161.807 Y173.404 I0.325 J0.651 E32.50570
G2 X162.346 Y173.091 I-1.068 J-2.459 E32.53165
G3 X162.915 Y173.013 I0.362 J0.525 E32.55618
G3 X162.891 Y173.808 I-0.239 J0.391 E32.59570
G3 X162.321 Y173.958 I-0.582 J-1.052 E32.62039
G2 X161.759 Y175.054 I0.140 J0.764 E32.67965
G1 X161.947 Y175.234 E32.69047
G2 X162.631 Y175.398 I1.089 J-3.035 E32.71976
G3 X163.430 Y176.330 I-0.242 J1.016 E32.77421
G3 X162.702 Y176.956 I-0.642 J-0.011 E32.81904
G3 X162.181 Y176.603 I2.518 J-4.277 E32.84522
G2 X161.096 Y176.791 I-0.436 J0.707 E32.89511
G2 X161.600 Y178.040 I0.847 J0.385 E32.95763
G2 X164.201 Y177.770 I1.072 J-2.338 E33.07170
G2 X164.720 Y175.305 I-1.391 J-1.580 E33.18367
G2 X163.966 Y174.511 I-1.008 J0.203 E33.23137
G1 F2100 E31.73137
G0 F6000 X164.303 Y174.498
G0 X164.675 Y174.885
G0 X166.018 Y178.115
G1 F2100 E33.23137
G0 F6000 X166.179 Y177.999
G2 X166.740 Y178.107 I0.440 J-0.774 E33.25570 F1200
G3 X168.209 Y178.070 I42.121 J1643.122 E33.31686
G2 X170.744 Y175.820 I0.002 J-2.551 E33.47090
G2 X170.307 Y172.919 I-4.195 J-0.851 E33.59555
G2 X168.335 Y171.871 I-1.952 J1.293 E33.69226
G2 X166.471 Y171.858 I-1.166 J33.532 E33.76983
G2 X165.908 Y172.727 I0.091 J0.676 E33.81864
G3 X165.931 Y177.501 I-279.663 J3.734 E34.01720
G2 X166.179 Y177.999 I0.790 J-0.083 E34.04070
G0 F6000 X165.896 Y178.335
G1 F2100 E32.5407
G0 F6000 X170.072 Y178.047
G0 X171.772 Y178.762
G1 F2100 E34.0407
G0 F6000 X171.795 Y178.564
G2 X171.479 Y178.529 I-0.027 J-1.200 E34.34006 F1200
G1 X171.795 Y178.564 E34.35328
G0 F6000 X171.804 Y179.003
G1 F2100 E32.85328
G0 F6000 X173.662 Y178.307
G0 X174.105 Y178.424
G0 X174.387 Y178.327
G0 X174.638 Y178.082
G0 X175.114 Y177.333
G1 F2100 E34.35328
G0 F6000 X175.104 Y177.001
G2 X175.789 Y178.137 I6.474 J-3.129 E34.40857 F1200
G2 X176.858 Y177.387 I0.440 J-0.510 E34.48243
G2 X176.477 Y176.686 I-2.722 J1.026 E34.51570
G3 X176.003 Y175.857 I7.441 J-4.804 E34.55543
G1 X175.993 Y175.62 E34.56529
G3 X176.706 Y174.345 I20.493 J10.623 E34.62612
G2 X176.012 Y173.327 I-0.512 J-0.397 E34.69388
G2 X175.192 Y174.454 I1.089 J1.654 E34.75326
G2 X174.403 Y173.344 I-2.292 J0.794 E34.81069
G2 X173.487 Y174.063 I-0.281 J0.585 E34.87080
G2 X174.316 Y175.592 I7.056 J-2.836 E34.94334
G1 X174.396 Y175.783 E34.95195
G2 X173.405 Y177.563 I5.443 J4.196 E35.03699
G2 X174.585 Y177.941 I0.625 J0.081 E35.10965
G2 X175.104 Y177.001 I-3.043 J-2.293 E35.15442
G1 F2100 E33.65442
G0 F6000 X175.114 Y177.333
G0 X175.484 Y177.977
G0 X176.128 Y178.861
G0 X177.472 Y177.757
G0 X176.585 Y175.704
G0 X177.112 Y174.827
G0 X178.257 Y177.698
G0 X177.826 Y178.744
G0 X176.594 Y179.563
G0 X177.177 Y180.621
G0 X177.531 Y180.973
G1 F2100 E35.15442
G0 F6000 X177.558 Y180.776
G2 X179.555 Y179.483 I0.274 J-1.766 E35.26293 F1200
G2 X181.290 Y174.731 I-111.337 J-43.343 E35.47329
G2 X181.495 Y173.803 I-1.091 J-0.728 E35.51388
G2 X180.755 Y173.298 I-0.682 J0.205 E35.55443
G2 X180.094 Y174.156 I0.620 J1.162 E35.60089
G2 X179.575 Y175.752 I17.422 J6.548 E35.67069
G3 X178.879 Y173.820 I11.715 J-5.312 E35.75618
G2 X177.739 Y173.387 I-0.752 J0.263 E35.81383
G2 X177.548 Y174.230 I0.642 J0.589 E35.85157
G2 X178.364 Y176.413 I174.354 J-63.929 E35.94853
G3 X178.849 Y177.692 I-157.404 J60.419 E36.00550
G3 X178.557 Y178.452 I-2.529 J-0.536 E36.03951
G3 X178.077 Y179.307 I-1.718 J-0.403 E36.08096
G2 X177.304 Y179.595 I1.547 J5.335 E36.11531
G2 X177.157 Y180.369 I0.413 J0.479 E36.15071
G2 X177.558 Y180.776 I0.670 J-0.259 E36.17497
G0 F6000 X177.408 Y181.189
G1 F2100 E34.67497
G0 F6000 X178.824 Y180.679
G0 X179.275 Y180.286
G0 X181.395 Y176.145
G0 X181.858 Y174.897
G0 X182.652 Y175.237
G0 X181.499 Y178.024
G0 X182.552 Y178.435
G0 X185.134 Y178.406
G0 X185.419 Y178.338
G0 X185.682 Y178.159
G0 X185.843 Y177.863
G0 X185.88 Y177.542
G0 X185.802 Y177.216
G0 X185.594 Y176.963
G0 X185.299 Y176.819
G0 X184.983 Y176.778
